X:79
M:2/4
L:1/8
K:G
{Bc}d2 dd|dddd|edcB|A>Bcc|{AB}c2 cc|cccc|dcBA|G>ABB|

